public/bigAd.svg

<svg width="187" height="103" viewBox="0 0 187 103" fill="none" xmlns="http://www.w3.org/2000/svg">
<g clip-path="url(#clip0_334_509)">
<g opacity="0.4" filter="url(#filter0_f_334_509)">
<path d="M119.787 63.7595C123.774 44.3695 125.767 34.6746 133.029 29.8893C140.292 25.1041 149.986 27.0974 169.376 31.0839L172.804 31.7887C192.194 35.7752 201.889 37.7685 206.674 45.0306C211.46 52.2928 209.466 61.9877 205.48 81.3777L204.775 84.8054C200.788 104.195 198.795 113.89 191.533 118.676C184.271 123.461 174.576 121.468 155.186 117.481L151.758 116.776C132.368 112.79 122.673 110.796 117.888 103.534C113.103 96.2721 115.096 86.5772 119.083 67.1872L119.787 63.7595Z" fill="#0077FF"/>
<path d="M161.145 93.7385C141.615 89.723 133.228 74.0432 137.344 51.6677L147.127 53.6791C144.087 70.0982 149.875 78.5078 155.294 81.1106L160.374 56.4026L169.586 58.2966L166.687 72.4002C172.453 72.953 179.7 67.7446 183.153 61.086L192.366 62.98C189.039 71.3764 181.291 76.482 176.177 78.1845C180.307 81.2665 186.474 88.3772 187.175 99.09L177.034 97.0051C176.251 89.7734 171.903 83.409 164.873 81.2194L162.253 93.9661L161.145 93.7385Z" fill="white"/>
</g>
<path d="M118.373 44.7467C124.338 27.8955 127.32 19.47 134.408 16.088C141.496 12.706 149.922 15.6884 166.773 21.6532L169.752 22.7076C186.603 28.6724 195.029 31.6548 198.411 38.7428C201.793 45.8308 198.81 54.2563 192.845 71.1075L191.791 74.0864C185.826 90.9376 182.844 99.363 175.756 102.745C168.668 106.127 160.242 103.145 143.391 97.1798L140.412 96.1254C123.561 90.1606 115.135 87.1782 111.754 80.0903C108.372 73.0022 111.354 64.5767 117.319 47.7255L118.373 44.7467Z" fill="#0077FF"/>
<path d="M151.661 76.6784C134.688 70.6703 129.125 55.6071 135.576 36.1016L144.078 39.1111C139.327 53.4217 143.464 61.6602 147.989 64.6588L155.59 43.186L163.596 46.0199L159.257 58.2768C164.347 59.4847 171.474 55.7223 175.387 50.1935L183.393 53.0273C179.378 60.1264 171.816 63.7347 167.031 64.625C170.344 67.8928 174.981 75.0162 174.282 84.6855L165.469 81.5661C165.663 75.0003 162.562 68.7695 156.544 65.9412L152.623 77.019L151.661 76.6784Z" fill="white"/>
<path d="M24.381 32.795C24.9023 33.0557 25.3103 33.441 25.605 33.951C25.911 34.4497 26.064 35.022 26.064 35.668C26.064 36.5973 25.707 37.385 24.993 38.031C24.2903 38.677 23.429 39 22.409 39H17.513V27.1H22.307C23.3043 27.1 24.126 27.3947 24.772 27.984C25.4293 28.562 25.758 29.2873 25.758 30.16C25.758 30.6813 25.6333 31.1857 25.384 31.673C25.1347 32.149 24.8003 32.523 24.381 32.795ZM23.82 30.449C23.82 29.9957 23.6613 29.6273 23.344 29.344C23.038 29.0493 22.6527 28.902 22.188 28.902H19.434V31.996H22.188C22.664 31.996 23.055 31.8487 23.361 31.554C23.667 31.2593 23.82 30.891 23.82 30.449ZM22.29 37.13C22.8113 37.13 23.2363 36.9713 23.565 36.654C23.905 36.3367 24.075 35.9343 24.075 35.447C24.075 34.9597 23.905 34.5573 23.565 34.24C23.2363 33.9227 22.8113 33.764 22.29 33.764H19.434V37.13H22.29ZM32.4144 39.221C31.0544 39.221 29.9098 38.762 28.9804 37.844C28.0624 36.9147 27.6034 35.77 27.6034 34.41C27.6034 33.0387 28.0624 31.894 28.9804 30.976C29.9098 30.058 31.0601 29.599 32.4314 29.599C33.5534 29.599 34.5281 29.9163 35.3554 30.551C36.1828 31.1857 36.7211 32.03 36.9704 33.084H35.1004C34.8624 32.5627 34.5054 32.1547 34.0294 31.86C33.5534 31.554 33.0151 31.401 32.4144 31.401C31.8818 31.401 31.3944 31.5313 30.9524 31.792C30.5104 32.0527 30.1591 32.4153 29.8984 32.88C29.6491 33.3333 29.5244 33.8433 29.5244 34.41C29.5244 35.26 29.8021 35.974 30.3574 36.552C30.9128 37.13 31.5984 37.419 32.4144 37.419C33.0151 37.419 33.5478 37.266 34.0124 36.96C34.4884 36.654 34.8511 36.2177 35.1004 35.651H37.0044C36.7438 36.7277 36.1941 37.5947 35.3554 38.252C34.5281 38.898 33.5478 39.221 32.4144 39.221ZM46.0346 29.82V31.52H42.8046V39H40.9686V31.52H37.7216V29.82H46.0346ZM54.2357 29.82H56.2587L52.0427 39.17C51.51 40.3373 50.966 41.1477 50.4107 41.601C49.8667 42.0657 49.1357 42.298 48.2177 42.298H47.2827V40.598H48.0647C48.6653 40.598 49.1073 40.479 49.3907 40.241C49.674 40.003 49.9857 39.51 50.3257 38.762L50.5297 38.337L46.5347 29.82H48.5917L51.4987 36.229L54.2357 29.82ZM57.7678 29.82H65.7748V39H63.9048V31.537H59.6548V39H57.7678V29.82ZM76.1432 29.82H77.6052V39H76.0752L75.8882 37.878C75.0042 38.7733 73.8992 39.221 72.5732 39.221C71.2019 39.221 70.0572 38.762 69.1392 37.844C68.2325 36.926 67.7792 35.7813 67.7792 34.41C67.7792 33.0273 68.2325 31.8827 69.1392 30.976C70.0572 30.058 71.2019 29.599 72.5732 29.599C73.9219 29.599 75.0382 30.0523 75.9222 30.959L76.1432 29.82ZM70.5502 36.569C71.1282 37.1357 71.8479 37.419 72.7092 37.419C73.5819 37.419 74.2959 37.1357 74.8512 36.569C75.4179 35.991 75.7012 35.2713 75.7012 34.41C75.7012 33.5373 75.4179 32.8177 74.8512 32.251C74.2959 31.6843 73.5819 31.401 72.7092 31.401C72.1425 31.401 71.6269 31.5313 71.1622 31.792C70.7089 32.0527 70.3519 32.4153 70.0912 32.88C69.8305 33.3333 69.7002 33.8433 69.7002 34.41C69.7002 35.2713 69.9835 35.991 70.5502 36.569ZM86.5351 26.794V28.205H81.9791V26.794H86.5351ZM87.0281 29.82H88.0821V39H86.2801V33.169L81.3841 39H80.2961V29.82H82.1151V35.6L87.0281 29.82ZM101.277 34.206C101.492 34.2967 101.685 34.4157 101.855 34.563C102.036 34.699 102.189 34.8633 102.314 35.056C102.439 35.2373 102.535 35.4413 102.603 35.668C102.671 35.8947 102.705 36.127 102.705 36.365C102.705 37.113 102.433 37.742 101.889 38.252C101.345 38.7507 100.665 39 99.8489 39H95.0549V29.82H99.7809C100.552 29.82 101.181 30.041 101.668 30.483C102.167 30.9137 102.416 31.4747 102.416 32.166C102.416 32.5967 102.314 32.9933 102.11 33.356C101.906 33.7187 101.628 34.002 101.277 34.206ZM100.546 32.472C100.546 32.1547 100.438 31.8997 100.223 31.707C100.019 31.5143 99.7469 31.418 99.4069 31.418H96.9079V33.526H99.4069C99.7469 33.526 100.019 33.4297 100.223 33.237C100.438 33.0443 100.546 32.7893 100.546 32.472ZM99.5089 37.351C99.8829 37.351 100.183 37.2433 100.41 37.028C100.648 36.8127 100.767 36.5407 100.767 36.212C100.767 35.872 100.648 35.5943 100.41 35.379C100.172 35.1637 99.8659 35.056 99.4919 35.056H96.9079V37.351H99.5089ZM23.208 47.82V49.503H19.196V57H17.343V47.82H23.208ZM29.7769 47.599C30.6836 47.599 31.4996 47.8087 32.2249 48.228C32.9502 48.636 33.5169 49.2083 33.9249 49.945C34.3329 50.6817 34.5369 51.5033 34.5369 52.41C34.5369 53.7927 34.0836 54.943 33.1769 55.861C32.2816 56.7677 31.1482 57.221 29.7769 57.221C28.5982 57.221 27.5839 56.8527 26.7339 56.116V60.298H24.8469V47.82H26.1219L26.4789 48.942C27.3629 48.0467 28.4622 47.599 29.7769 47.599ZM27.4819 54.569C28.0486 55.1357 28.7626 55.419 29.6239 55.419C30.4966 55.419 31.2162 55.1357 31.7829 54.569C32.3496 53.991 32.6329 53.2713 32.6329 52.41C32.6329 51.5487 32.3496 50.8347 31.7829 50.268C31.2162 49.69 30.5022 49.401 29.6409 49.401C29.0742 49.401 28.5586 49.5313 28.0939 49.792C27.6292 50.0527 27.2666 50.4153 27.0059 50.88C26.7566 51.3333 26.6319 51.8433 26.6319 52.41C26.6319 53.2713 26.9152 53.991 27.4819 54.569ZM42.7972 47.82H44.8202L40.6042 57.17C40.0715 58.3373 39.5275 59.1477 38.9722 59.601C38.4282 60.0657 37.6972 60.298 36.7792 60.298H35.8442V58.598H36.6262C37.2268 58.598 37.6688 58.479 37.9522 58.241C38.2355 58.003 38.5472 57.51 38.8872 56.762L39.0912 56.337L35.0962 47.82H37.1532L40.0602 54.229L42.7972 47.82ZM46.3293 47.82H54.3363V57H52.4663V49.537H48.2163V57H46.3293V47.82ZM57.0207 47.82H65.0277V57H63.1577V49.537H58.9077V57H57.0207V47.82ZM74.2571 47.82H76.2801L72.0641 57.17C71.5315 58.3373 70.9875 59.1477 70.4321 59.601C69.8881 60.0657 69.1571 60.298 68.2391 60.298H67.3041V58.598H68.0861C68.6868 58.598 69.1288 58.479 69.4121 58.241C69.6955 58.003 70.0071 57.51 70.3471 56.762L70.5511 56.337L66.5561 47.82H68.6131L71.5201 54.229L74.2571 47.82ZM24.381 68.795C24.9023 69.0557 25.3103 69.441 25.605 69.951C25.911 70.4497 26.064 71.022 26.064 71.668C26.064 72.5973 25.707 73.385 24.993 74.031C24.2903 74.677 23.429 75 22.409 75H17.513V63.1H22.307C23.3043 63.1 24.126 63.3947 24.772 63.984C25.4293 64.562 25.758 65.2873 25.758 66.16C25.758 66.6813 25.6333 67.1857 25.384 67.673C25.1347 68.149 24.8003 68.523 24.381 68.795ZM23.82 66.449C23.82 65.9957 23.6613 65.6273 23.344 65.344C23.038 65.0493 22.6527 64.902 22.188 64.902H19.434V67.996H22.188C22.664 67.996 23.055 67.8487 23.361 67.554C23.667 67.2593 23.82 66.891 23.82 66.449ZM22.29 73.13C22.8113 73.13 23.2363 72.9713 23.565 72.654C23.905 72.3367 24.075 71.9343 24.075 71.447C24.075 70.9597 23.905 70.5573 23.565 70.24C23.2363 69.9227 22.8113 69.764 22.29 69.764H19.434V73.13H22.29ZM33.997 75L31.243 71.09H30.104V75H28.217V65.82H30.104V69.373H31.26L33.759 65.82H35.986L32.875 70.223L36.326 75H33.997ZM45.0663 73.861C44.1369 74.7677 42.9696 75.221 41.5643 75.221C40.1589 75.221 38.9859 74.7677 38.0453 73.861C37.1159 72.943 36.6513 71.7927 36.6513 70.41C36.6513 69.5033 36.8609 68.6817 37.2803 67.945C37.7109 67.2083 38.3003 66.636 39.0483 66.228C39.8076 65.8087 40.6463 65.599 41.5643 65.599C42.4823 65.599 43.3153 65.8087 44.0633 66.228C44.8226 66.636 45.4119 67.2083 45.8313 67.945C46.2619 68.6817 46.4773 69.5033 46.4773 70.41C46.4773 71.7927 46.0069 72.943 45.0663 73.861ZM41.5643 73.419C42.1423 73.419 42.6579 73.2943 43.1113 73.045C43.5646 72.7843 43.9159 72.4273 44.1653 71.974C44.4259 71.5093 44.5563 70.988 44.5563 70.41C44.5563 69.5373 44.2729 68.8177 43.7063 68.251C43.1509 67.6843 42.4369 67.401 41.5643 67.401C40.6916 67.401 39.9719 67.6843 39.4053 68.251C38.8499 68.8177 38.5723 69.5373 38.5723 70.41C38.5723 71.2827 38.8499 72.0023 39.4053 72.569C39.9719 73.1357 40.6916 73.419 41.5643 73.419ZM54.6075 65.82H56.4605V75H54.6075V71.158H50.3575V75H48.4875V65.82H50.3575V69.424H54.6075V65.82ZM66.4047 65.82V67.52H63.1747V75H61.3387V67.52H58.0917V65.82H66.4047ZM75.4791 65.82H76.9411V75H75.4111L75.2241 73.878C74.3401 74.7733 73.2351 75.221 71.9091 75.221C70.5378 75.221 69.3931 74.762 68.4751 73.844C67.5685 72.926 67.1151 71.7813 67.1151 70.41C67.1151 69.0273 67.5685 67.8827 68.4751 66.976C69.3931 66.058 70.5378 65.599 71.9091 65.599C73.2578 65.599 74.3741 66.0523 75.2581 66.959L75.4791 65.82ZM69.8861 72.569C70.4641 73.1357 71.1838 73.419 72.0451 73.419C72.9178 73.419 73.6318 73.1357 74.1871 72.569C74.7538 71.991 75.0371 71.2713 75.0371 70.41C75.0371 69.5373 74.7538 68.8177 74.1871 68.251C73.6318 67.6843 72.9178 67.401 72.0451 67.401C71.4785 67.401 70.9628 67.5313 70.4981 67.792C70.0448 68.0527 69.6878 68.4153 69.4271 68.88C69.1665 69.3333 69.0361 69.8433 69.0361 70.41C69.0361 71.2713 69.3195 71.991 69.8861 72.569ZM85.4121 75L82.6581 71.09H81.5191V75H79.6321V65.82H81.5191V69.373H82.6751L85.1741 65.82H87.4011L84.2901 70.223L87.7411 75H85.4121ZM96.3041 65.82V67.52H93.0741V75H91.2381V67.52H87.9911V65.82H96.3041ZM106.416 70.427C106.416 70.597 106.404 70.8067 106.382 71.056H98.9356C99.0489 71.7927 99.3549 72.3763 99.8536 72.807C100.364 73.2377 100.993 73.453 101.741 73.453C102.103 73.453 102.443 73.402 102.761 73.3C103.078 73.1867 103.356 73.0337 103.594 72.841C103.843 72.637 104.047 72.3933 104.206 72.11H106.195C105.832 73.0847 105.254 73.8497 104.461 74.405C103.667 74.949 102.761 75.221 101.741 75.221C100.392 75.221 99.2642 74.762 98.3576 73.844C97.4622 72.926 97.0146 71.7813 97.0146 70.41C97.0146 69.0387 97.4622 67.894 98.3576 66.976C99.2642 66.058 100.392 65.599 101.741 65.599C102.659 65.599 103.475 65.82 104.189 66.262C104.903 66.6927 105.452 67.2763 105.838 68.013C106.223 68.7383 106.416 69.543 106.416 70.427ZM101.741 67.299C101.038 67.299 100.437 67.4973 99.9386 67.894C99.4512 68.2907 99.1282 68.8347 98.9696 69.526H104.529C104.415 69.0613 104.228 68.6647 103.968 68.336C103.707 67.996 103.384 67.741 102.999 67.571C102.625 67.3897 102.205 67.299 101.741 67.299Z" fill="#222B3D"/>
</g>
<defs>
<filter id="filter0_f_334_509" x="70.0908" y="-17.908" width="184.381" height="184.381" filterUnits="userSpaceOnUse" color-interpolation-filters="sRGB">
<feFlood flood-opacity="0" result="BackgroundImageFix"/>
<feBlend mode="normal" in="SourceGraphic" in2="BackgroundImageFix" result="shape"/>
<feGaussianBlur stdDeviation="22.5" result="effect1_foregroundBlur_334_509"/>
</filter>
<clipPath id="clip0_334_509">
<rect width="187" height="103" fill="white"/>
</clipPath>
</defs>
</svg>

<svg xmlns="http://www.w3.org/2000/svg" width="187" height="103" fill="none"><g filter="url(#a)"><rect width="187" height="103" fill="#fff" rx="24"/><mask id="b" width="187" height="103" x="0" y="0" maskUnits="userSpaceOnUse" style="mask-type:alpha"><path fill="#fff" stroke="#F4F7FC" d="M.5.5h186v102H.5z"/></mask><g mask="url(#b)"><g filter="url(#c)" opacity=".4"><path fill="#07F" d="M128.307 66.374c3.418-16.623 5.127-24.934 11.352-29.037 6.226-4.102 14.538-2.393 31.161 1.024l2.938.604c16.623 3.418 24.934 5.127 29.037 11.353 4.102 6.225 2.393 14.537-1.024 31.16l-.605 2.938c-3.417 16.623-5.126 24.934-11.352 29.037-6.226 4.102-14.537 2.393-31.16-1.024l-2.938-.604c-16.623-3.418-24.935-5.127-29.037-11.353-4.102-6.225-2.394-14.537 1.024-31.16l.604-2.938Z"/><path fill="#fff" d="M163.764 92.073c-16.743-3.442-23.933-16.884-20.404-36.066l8.387 1.724c-2.607 14.076 2.355 21.285 7.001 23.517l4.355-21.182 7.898 1.623-2.486 12.091c4.943.474 11.157-3.99 14.117-9.7l7.897 1.624c-2.852 7.199-9.494 11.576-13.878 13.035 3.541 2.642 8.828 8.738 9.428 17.922l-8.693-1.787c-.672-6.2-4.399-11.656-10.426-13.533l-2.246 10.928-.95-.196Z"/></g><path fill="#07F" d="M119.014 42.937c5.663-15.998 8.494-23.997 15.223-27.208 6.729-3.21 14.728-.38 30.726 5.284l2.828 1c15.998 5.663 23.997 8.495 27.208 15.224 3.21 6.729.379 14.728-5.284 30.726l-1.001 2.828c-5.663 15.998-8.494 23.997-15.223 27.208-6.729 3.21-14.728.379-30.726-5.284l-2.828-1.001c-15.998-5.663-23.997-8.494-27.208-15.223-3.21-6.73-.379-14.728 5.284-30.726l1.001-2.828Z"/><path fill="#fff" d="M150.616 73.252c-16.114-5.704-21.395-20.005-15.271-38.522l8.072 2.857c-4.511 13.586-.583 21.407 3.713 24.254l7.216-20.386 7.601 2.69-4.119 11.637c4.832 1.147 11.598-2.425 15.313-7.674l7.6 2.69c-3.811 6.74-10.99 10.166-15.533 11.01 3.145 3.103 7.547 9.866 6.884 19.045l-8.367-2.961c.184-6.233-2.76-12.149-8.473-14.834l-3.722 10.517-.914-.323Z"/><path fill="#222B3D" d="M24.381 32.795c.521.26.93.646 1.224 1.156.306.499.459 1.071.459 1.717 0 .93-.357 1.717-1.071 2.363-.703.646-1.564.969-2.584.969h-4.896V27.1h4.794c.997 0 1.819.295 2.465.884.657.578.986 1.303.986 2.176 0 .521-.125 1.026-.374 1.513-.25.476-.584.85-1.003 1.122Zm-.561-2.346c0-.453-.159-.822-.476-1.105-.306-.295-.691-.442-1.156-.442h-2.754v3.094h2.754c.476 0 .867-.147 1.173-.442a1.47 1.47 0 0 0 .459-1.105Zm-1.53 6.681c.521 0 .946-.159 1.275-.476.34-.317.51-.72.51-1.207 0-.487-.17-.89-.51-1.207-.329-.317-.754-.476-1.275-.476h-2.856v3.366h2.856Zm10.124 2.091c-1.36 0-2.504-.459-3.434-1.377-.918-.93-1.377-2.074-1.377-3.434 0-1.371.46-2.516 1.377-3.434.93-.918 2.08-1.377 3.451-1.377 1.122 0 2.097.317 2.924.952.828.635 1.366 1.479 1.615 2.533H35.1a2.747 2.747 0 0 0-1.07-1.224 2.922 2.922 0 0 0-1.616-.459c-.532 0-1.02.13-1.462.391-.442.26-.793.623-1.054 1.088-.249.453-.374.963-.374 1.53 0 .85.278 1.564.833 2.142.556.578 1.241.867 2.057.867.601 0 1.134-.153 1.598-.459.476-.306.84-.742 1.088-1.309h1.904c-.26 1.077-.81 1.944-1.649 2.601-.827.646-1.807.969-2.94.969Zm13.62-9.401v1.7h-3.23V39H40.97v-7.48h-3.247v-1.7h8.313Zm8.202 0h2.023l-4.216 9.35c-.533 1.167-1.077 1.978-1.632 2.431-.544.465-1.275.697-2.193.697h-.935v-1.7h.782c.6 0 1.042-.119 1.326-.357.283-.238.595-.731.935-1.479l.204-.425-3.995-8.517h2.057l2.907 6.409 2.737-6.409Zm3.532 0h8.007V39h-1.87v-7.463h-4.25V39h-1.887v-9.18Zm18.375 0h1.462V39h-1.53l-.187-1.122c-.884.895-1.989 1.343-3.315 1.343-1.371 0-2.516-.459-3.434-1.377-.906-.918-1.36-2.063-1.36-3.434 0-1.383.454-2.527 1.36-3.434.918-.918 2.063-1.377 3.434-1.377 1.349 0 2.465.453 3.35 1.36l.22-1.139Zm-5.593 6.749c.578.567 1.298.85 2.16.85.872 0 1.586-.283 2.141-.85.567-.578.85-1.298.85-2.159 0-.873-.283-1.592-.85-2.159-.555-.567-1.27-.85-2.142-.85-.567 0-1.082.13-1.547.391-.453.26-.81.623-1.07 1.088-.261.453-.392.963-.392 1.53 0 .861.284 1.581.85 2.159Zm15.985-9.775v1.411H81.98v-1.411h4.556Zm.493 3.026h1.054V39H86.28v-5.831L81.384 39h-1.088v-9.18h1.82v5.78l4.912-5.78Zm14.249 4.386c.215.09.408.21.578.357.181.136.334.3.459.493.125.181.221.385.289.612.068.227.102.459.102.697 0 .748-.272 1.377-.816 1.887-.544.499-1.224.748-2.04.748h-4.794v-9.18h4.726c.771 0 1.4.221 1.887.663.499.43.748.992.748 1.683 0 .43-.102.827-.306 1.19a2.226 2.226 0 0 1-.833.85Zm-.731-1.734c0-.317-.108-.572-.323-.765-.204-.193-.476-.289-.816-.289h-2.5v2.108h2.5c.34 0 .612-.096.816-.289.215-.193.323-.448.323-.765Zm-1.037 4.879c.374 0 .674-.108.901-.323.238-.215.357-.487.357-.816 0-.34-.119-.618-.357-.833-.238-.215-.544-.323-.918-.323h-2.584v2.295h2.6ZM23.208 47.82v1.683h-4.012V57h-1.853v-9.18h5.865Zm6.569-.221c.907 0 1.723.21 2.448.629.725.408 1.292.98 1.7 1.717.408.737.612 1.558.612 2.465 0 1.383-.453 2.533-1.36 3.451-.895.907-2.029 1.36-3.4 1.36-1.179 0-2.193-.368-3.043-1.105v4.182h-1.887V47.82h1.275l.357 1.122c.884-.895 1.983-1.343 3.298-1.343Zm-2.295 6.97c.567.567 1.28.85 2.142.85.873 0 1.592-.283 2.159-.85.567-.578.85-1.298.85-2.159 0-.861-.283-1.575-.85-2.142-.567-.578-1.28-.867-2.142-.867-.567 0-1.082.13-1.547.391a2.79 2.79 0 0 0-1.088 1.088c-.25.453-.374.963-.374 1.53 0 .861.283 1.581.85 2.159Zm15.315-6.749h2.023l-4.216 9.35c-.532 1.167-1.076 1.978-1.632 2.431-.544.465-1.275.697-2.193.697h-.935v-1.7h.782c.6 0 1.043-.119 1.326-.357.284-.238.595-.731.935-1.479l.204-.425-3.995-8.517h2.057l2.907 6.409 2.737-6.409Zm3.532 0h8.007V57h-1.87v-7.463h-4.25V57H46.33v-9.18Zm10.692 0h8.007V57h-1.87v-7.463h-4.25V57H57.02v-9.18Zm17.236 0h2.023l-4.216 9.35c-.532 1.167-1.076 1.978-1.632 2.431-.544.465-1.275.697-2.193.697h-.935v-1.7h.782c.6 0 1.043-.119 1.326-.357.283-.238.595-.731.935-1.479l.204-.425-3.995-8.517h2.057l2.907 6.409 2.737-6.409ZM24.381 68.795c.521.26.93.646 1.224 1.156.306.499.459 1.071.459 1.717 0 .93-.357 1.717-1.071 2.363-.703.646-1.564.969-2.584.969h-4.896V63.1h4.794c.997 0 1.819.295 2.465.884.657.578.986 1.303.986 2.176 0 .521-.125 1.026-.374 1.513-.25.476-.584.85-1.003 1.122Zm-.561-2.346c0-.453-.159-.822-.476-1.105-.306-.295-.691-.442-1.156-.442h-2.754v3.094h2.754c.476 0 .867-.147 1.173-.442a1.47 1.47 0 0 0 .459-1.105Zm-1.53 6.681c.521 0 .946-.159 1.275-.476.34-.317.51-.72.51-1.207 0-.487-.17-.89-.51-1.207-.329-.317-.754-.476-1.275-.476h-2.856v3.366h2.856ZM35.525 75l-3.723-5.219h-1.394V75h-1.955V63.1h1.955v4.862h1.377l3.4-4.862h2.397l-4.063 5.746L37.956 75h-2.43Zm10.753-1.139c-.93.907-2.096 1.36-3.502 1.36-1.405 0-2.578-.453-3.519-1.36-.93-.918-1.394-2.068-1.394-3.451 0-.907.21-1.728.63-2.465a4.517 4.517 0 0 1 1.767-1.717 5.117 5.117 0 0 1 2.516-.629c.918 0 1.751.21 2.5.629.758.408 1.348.98 1.767 1.717.43.737.646 1.558.646 2.465 0 1.383-.47 2.533-1.41 3.451Zm-3.502-.442c.578 0 1.094-.125 1.547-.374.453-.26.805-.618 1.054-1.071a3.14 3.14 0 0 0 .391-1.564c0-.873-.283-1.592-.85-2.159-.555-.567-1.27-.85-2.142-.85-.873 0-1.592.283-2.159.85-.555.567-.833 1.286-.833 2.159 0 .873.278 1.592.833 2.159.567.567 1.287.85 2.16.85ZM55.82 65.82h1.853V75H55.82v-3.842h-4.25V75H49.7v-9.18h1.87v3.604h4.25V65.82Zm11.798 0v1.7h-3.23V75H62.55v-7.48h-3.247v-1.7h8.313Zm9.074 0h1.462V75h-1.53l-.187-1.122c-.884.895-1.989 1.343-3.315 1.343-1.371 0-2.516-.459-3.434-1.377-.907-.918-1.36-2.063-1.36-3.434 0-1.383.453-2.527 1.36-3.434.918-.918 2.063-1.377 3.434-1.377 1.349 0 2.465.453 3.35 1.36l.22-1.139Zm-5.593 6.749c.578.567 1.298.85 2.16.85.872 0 1.586-.283 2.141-.85.567-.578.85-1.298.85-2.159 0-.873-.283-1.592-.85-2.159-.555-.567-1.27-.85-2.142-.85-.567 0-1.082.13-1.547.391-.453.26-.81.623-1.07 1.088-.262.453-.392.963-.392 1.53 0 .861.283 1.581.85 2.159ZM86.624 75l-2.754-3.91h-1.139V75h-1.887v-9.18h1.887v3.553h1.156l2.499-3.553h2.227l-3.111 4.403L88.953 75h-2.329Zm10.892-9.18v1.7h-3.23V75H92.45v-7.48h-3.247v-1.7h8.313Zm10.111 4.607c0 .17-.011.38-.034.629h-7.446c.114.737.42 1.32.918 1.751.51.43 1.139.646 1.887.646.363 0 .703-.051 1.02-.153.318-.113.595-.266.833-.459.25-.204.454-.448.612-.731h1.989c-.362.975-.94 1.74-1.734 2.295-.793.544-1.7.816-2.72.816-1.348 0-2.476-.459-3.382-1.377-.896-.918-1.343-2.063-1.343-3.434s.447-2.516 1.343-3.434c.906-.918 2.034-1.377 3.382-1.377.918 0 1.734.221 2.448.663a4.376 4.376 0 0 1 1.649 1.751c.386.725.578 1.53.578 2.414Zm-4.675-3.128c-.702 0-1.303.198-1.802.595-.487.397-.81.94-.969 1.632h5.559a3.04 3.04 0 0 0-.561-1.19 2.442 2.442 0 0 0-.969-.765 2.845 2.845 0 0 0-1.258-.272Z"/></g></g><defs><filter id="a" width="187" height="103" x="0" y="0" color-interpolation-filters="sRGB" filterUnits="userSpaceOnUse"><feFlood flood-opacity="0" result="BackgroundImageFix"/><feBlend in="SourceGraphic" in2="BackgroundImageFix" result="shape"/><feColorMatrix in="SourceAlpha" result="hardAlpha" values="0 0 0 0 0 0 0 0 0 0 0 0 0 0 0 0 0 0 127 0"/><feOffset/><feGaussianBlur stdDeviation="9"/><feComposite in2="hardAlpha" k2="-1" k3="1" operator="arithmetic"/><feColorMatrix values="0 0 0 0 0.7 0 0 0 0 0.7 0 0 0 0 0.7 0 0 0 0.05 0"/><feBlend in2="shape" result="effect1_innerShadow_704_137"/></filter><filter id="c" width="170.912" height="170.912" x="79.281" y="-10.061" color-interpolation-filters="sRGB" filterUnits="userSpaceOnUse"><feFlood flood-opacity="0" result="BackgroundImageFix"/><feBlend in="SourceGraphic" in2="BackgroundImageFix" result="shape"/><feGaussianBlur result="effect1_foregroundBlur_704_137" stdDeviation="22.5"/></filter></defs></svg>
